res/skins/Tango/buttons/btn_aux_xfader_center.svg

<!-- Created with Inkscape (http://www.inkscape.org/) -->
<svg id="svg2" width="18" height="15" version="1.1" xmlns="http://www.w3.org/2000/svg"><g id="g4" fill="#888"><path id="path6" d="m8 14v-13h2v13z" fill="#b3b3b3"/><path id="path8" d="m10 7h7v2h-7zm-9 0h7v2h-7z"/></g></svg>

<?xml version="1.0" encoding="UTF-8" standalone="no"?>
<!-- Created with Inkscape (http://www.inkscape.org/) -->

<svg
   xmlns:dc="http://purl.org/dc/elements/1.1/"
   xmlns:cc="http://creativecommons.org/ns#"
   xmlns:rdf="http://www.w3.org/1999/02/22-rdf-syntax-ns#"
   xmlns:svg="http://www.w3.org/2000/svg"
   xmlns="http://www.w3.org/2000/svg"
   version="1.1"
   width="18"
   height="15"
   id="svg2">
  <metadata
     id="metadata14">
    <rdf:RDF>
      <cc:Work
         rdf:about="">
        <dc:format>image/svg+xml</dc:format>
        <dc:type
           rdf:resource="http://purl.org/dc/dcmitype/StillImage" />
        <dc:title></dc:title>
      </cc:Work>
    </rdf:RDF>
  </metadata>
  <defs
     id="defs12" />
  <g
     id="g4"
     style="fill:#888888">
    <path
       d="M 8,14 8,1 10,1 10,14 z"
       id="path6"
       style="fill:#b3b3b3" />
    <path
       d="m 10,7 h 7 V 9 H 10 z M 1,7 H 8 V 9 H 1 z"
       id="path8" />
  </g>
</svg>
